X:1
T: Cortes Gardens
P:adapted by Bruce Shawyer
R:Strathspey
Q: 128
K:Em
M:4/4
L:1/16
B,2|:E4 G3E B3E G3E|B,3E G3E FD3 D3F|E3G B3^d e3B G3E|ABc2 c2BA GE3 E2B,2|
E4 G3E B3E G3E|B,3E G3E FD3 D3F|E3G B3^d e3B G3E|ABc2 B3^d e3F E2F2|
G4 D3G B,3G G,3G|B,3G G,3G E3A, A,3F|G3B d3f g3d B3G|ABc2 c2BA GE3 E3F|
G4 D3G B,3G G,3G|B,3G G,3G E3A, A,3F|((3G2A2B2) ((3A2B2c2) ((3B2c2d2) ((3c2d2e2) |1((3d2c2B2) ((3c2B2A2) ((3B2A2G2) ((3F2E2^D2) :|2((3d2c2B2) ((3A2G2F2) E4||
